X: 1842
T: Argeres
R: reel
M: 4/4
K: Gmajor
D2|:GABc A3G|F2D2 D4|d2A2 d3c|B2G2 G3D|
GABc A3G|FEFG A2 D2|EFGE FGAB|G4G4:|
|:FGA2 FGA2|d2A2 d2A2|FGA2 FGA2|d2A2 d2A2|
d2cB c2 dc|B2AG A2D2|EFGE FGAB|G4 G4:|

